X:58
T:Sheehan's Reel
S:Bernie Waugh
R:Reel
M:4/4
L:1/8
K:G
(3DEF|:\
"G"G2BG DGBG|"D"ABcA "G"~BGGB|"Am"A^GAB cBA=G|"C"EAAG "D"~FDEF|
"G"G2BG DGBd|"Am"cBAB cdef|"Em"gedB "C"~c2Bc|"D"dBcA "G"BGG2:|
|:\
"G"g2bg dgbg|gbag "Bm"fdde|"F"=f2af cfaf|=fagf "D"ede^f|
"G"g2bg dgbg|gbag "D"fdef|"Em"gedB "C"~c2Bc|"D"dBcA "G"BGG2:|

